!!!COM: pink-floyd
!!!OTL: in-the-flesh
!!!RNB: hooktheoryid: nRPxeV--ob_
**kern	**text
*clefG2	*
*k[f#c#g#]	*
*M4/4	*
=1	=1
2a	A
2cc#	.
=2	=2
2b	.
4.a	.
8g#	.
=3	=3
2f#	D/F#
2dd	.
=4	=4
2cc#	.
2b	.
=5	=5
2a	A
2cc#	.
=6	=6
2b	.
4.a	.
8g#	.
=7	=7
2f#	D/F#
2dd	.
=8	=8
2cc#	.
2b	.
=9	=9
2a	A
2cc#	.
=10	=10
2b	.
4.a	.
8a#	.
=11	=11
2b	Bm
2dd	.
=12	=12
2cc#	.
4.b	.
8cc	.
=13	=13
2cc#	C#m
2ee	.
=14	=14
2dd	.
2cc#	.
=15	=15
1e	E
=16	=16
1r	.
*-	*-